X:206 
T:Take Her Out and Air Her (reel) 
S:Donnelly < P. Nugent, Tyrone
F:file ID: cre.4/206take_her
B:CRE4.135 (Tabhair Amach agus TaispeÃÂÃÂÃÂÃÂ¡in Don Saol ÃÂÃÂÃÂÃÂ­)
N:Another "back-translation" gem!
L:1/8
Q:180
M:4/4
R:reel
K:D
(3ABc|d2AG FDD2|E2BE GABc|d2AG FDDg|fdec d2 (3ABc|
d2 AG FD D2|E2 BE GABc|d2 fd Beeg|fdec d2:|
d2|fd~d2 adfd|(3cBA eA cdeg|fd~d2 adfd|efge d2 d2|
fd~d2 adfd|(3cBA eA cdeg|fede fga2|bage d2:|

%%%

